img/svg/socket.svg

<svg xmlns="http://www.w3.org/2000/svg" width="24.356" height="26"><path d="M1.715 14.456a7.519 7.519 0 0011.683 9.323l10.958-10.107-1.458-1.578L11.942 22.2a5.37 5.37 0 01-8.594-6.3 8.592 8.592 0 0011.256-.731l1.944-1.769-2.588-2.588 3.931-3.931L16.42 5.37 12.489 9.3l-3.9-3.845 3.931-3.931L11.049 0 7.118 3.931l-2.82-2.857L2.51 3a8.592 8.592 0 00-.719 11.32zm2.353-9.978l.225-.29 9.141 9.141-.333.3a6.445 6.445 0 11-9.033-9.151z"/></svg>

<svg xmlns="http://www.w3.org/2000/svg" width="24.356" height="26" viewBox="0 0 24.356 26"><g transform="translate(-0.002)"><g transform="translate(0.002)"><path d="M1.717,14.456A7.519,7.519,0,0,0,13.4,23.779L24.358,13.672,22.9,12.094,11.944,22.2A5.37,5.37,0,0,1,3.35,15.9a8.592,8.592,0,0,0,11.256-.731L16.55,13.4l-2.588-2.588,3.931-3.931L16.422,5.37,12.491,9.3l-3.9-3.845,3.931-3.931L11.051,0,7.12,3.931,4.3,1.074,2.512,3a8.592,8.592,0,0,0-.719,11.32ZM4.07,4.478l.225-.29,9.141,9.141-.333.3A6.445,6.445,0,1,1,4.07,4.478Z" transform="translate(-0.002)"/></g></g></svg>
